svgs/quranapp.svg

<svg width="192" height="192" viewBox="0 0 192 192" fill="none" xmlns="http://www.w3.org/2000/svg">
<path d="M143.1 79C148.114 88.0474 151 98.656 151 110C151 143.137 126.376 170 96 170C65.6243 170 41 143.137 41 110C41 95.8108 45.5149 82.772 53.0631 72.5M143.1 79C137.69 69.4469 127.262 63 115.5 63C98.103 63 84 77.103 84 94.5C84 111.897 98.103 126 115.5 126C132.897 126 147 111.897 147 94.5C147 88.8654 145.691 83.5763 143.1 79Z" stroke="black" stroke-width="12" stroke-linecap="round"/>
<path d="M85 26C91.6274 26 97 31.3726 97 38C97 40.7255 96.0894 43.2373 94.5586 45.252C93.7666 45.0874 92.9462 45 92.1055 45C88.2037 45 84.7375 46.863 82.5459 49.7471C77.0957 48.6143 73 43.7862 73 38C73 31.3726 78.3726 26 85 26Z" stroke="black" stroke-width="10" stroke-linejoin="round"/>
<path d="M127.5 21C134.956 21 141 27.0442 141 34.5C141 39.9228 137.802 44.5973 133.189 46.7441C130.854 42.7125 126.494 40 121.5 40C119.467 40 117.539 40.4499 115.81 41.2549C114.659 39.268 114 36.9611 114 34.5C114 27.0442 120.044 21 127.5 21Z" stroke="black" stroke-width="10" stroke-linejoin="round"/>
</svg>

<svg width="192" height="192" fill="none" xmlns="http://www.w3.org/2000/svg"><path d="M143.1 79c5.014 9.047 7.9 19.656 7.9 31 0 33.137-24.624 60-55 60s-55-26.863-55-60c0-14.19 4.515-27.228 12.063-37.5M143.1 79c-5.41-9.553-15.838-16-27.6-16C98.103 63 84 77.103 84 94.5S98.103 126 115.5 126 147 111.897 147 94.5c0-5.635-1.309-10.924-3.9-15.5Z" stroke="#000" stroke-width="12" stroke-linecap="round"/><path d="M85 26c6.627 0 12 5.373 12 12 0 2.725-.91 5.237-2.441 7.252A12.045 12.045 0 0 0 92.106 45a11.98 11.98 0 0 0-9.56 4.747C77.096 48.614 73 43.787 73 38c0-6.627 5.373-12 12-12Zm43.5-5c7.456 0 13.5 6.044 13.5 13.5 0 4.817-2.523 9.043-6.319 11.433A13.487 13.487 0 0 0 124.5 40a13.44 13.44 0 0 0-7.182 2.066A13.439 13.439 0 0 1 115 34.5c0-7.456 6.044-13.5 13.5-13.5Z" stroke="#000" stroke-width="10" stroke-linejoin="round"/></svg>
